X:1
T:Jesu Redemptor Omnium, LM
T:German Church Melody, 1625
T:Jesu Redemptor Omnium, LM
T:Public Domain
C:German Church Melody, 1625
Z:Public Domain
%%score ( 1 2 ) ( 3 4 )
L:1/8
M:4/4
K:G
V:1 treble 
V:2 treble 
V:3 bass 
V:4 bass 
V:1
 [DG]2 [DF][DG] [DA]2 [DA]2 | [DB]2 (AG) [DA]4 | [B,G]2 [DF][DG] [EA]2 [DF]2 | [EG]2 (FE) D4 | %4
 [DG]2 [DF][DG] [DA]2 [DA]2 | [DB]2 ([FA][DG]) [DA]4 | (DE)[Fd][Fc] (GF) z c | [DB]2 (DC) [B,G]4 |] %8
V:2
 x8 | x2 ^C2 x4 | x8 | x2 ^C2 D4 | x8 | x8 | d2 x B3 E2 | x2 A2 x4 |] %8
V:3
 [G,B,]2 [D,A,][G,B,] [F,A,]2 [D,F,]2 | G,2 [E,G,]2 [D,F,]4 | %2
 [E,G,]2 [B,,B,][B,,B,] [^C,A,]2 [D,A,]2 | [G,,B,]2 (A,G,) [D,F,]4 | %4
 [B,,G,]2 [D,A,][G,B,] [F,A,]2 [D,F,]2 | G,2 ([D,A,][B,,B,]) [D,F,]4 | %6
 [B,,G,]2 [D,A,][D,A,] (E,D,) [C,G,]2 | [D,G,]2 [D,F,]2 [G,,G,]4 |] %8
V:4
 x8 | G,2 x6 | x8 | x2 A,,2 x4 | x8 | G,2 x6 | x4 G,2 x2 | x8 |] %8

